X:1
T:James Gibb editions
T:Zephyrus brings the time - Cavendish
T:#
%%score { 1 | 2 } 3 4 5
L:1/8
Q:1/4=120
M:2/2
K:F
V:1 treble nm="Soprano" snm="S"
V:2 treble 
V:3 treble nm="Alto" snm="A"
V:4 treble-8 nm="Tenor" snm="T"
V:5 bass nm="Bass" snm="B"
V:1
"^Zephyrus brings the time""^Michael Cavendish\n(c.1565-1628)" z8 | z8 | z8 | z8 | c6 BA | %5
w: ||||Ze- phy- rus|
 B2 c2 G2 A2 | G2 F2 G4 | A4 z2 F2 | F2 F2 B3 c | d2 d2 d2 =B2 | (c3 !courtesy!_B) A2 G2 | %11
w: brings the time that|sweet- ly scent-|eth With|flowers and herbs, and|win- ter's frost ex-|il­ * eth, and|
 d2 c2 B2 F2 | G8 | A8- | A4 z4 | c6 BA | B2 c2 G2 A2 | G2 F2 G4 | A4 f4- | f2 ff e2 f2 | %20
w: win- ter's frost ex-|il-|eth,||Ze- phy- rus|brings the time that|sweet- ly scent-|eth, Ze­|* phy- rus brings the|
[M:2/2] d2 A2 c4 | c2 A2 A2 A2 | B6 B2 | A2 G2 A2 A2 | (d2 c2 d4) | e8 | z8 | z8 | z8 | z8 | z8 | %31
w: time that scent-|eth with flowers and|herbs, and|win- ter's frost ex-|il­ * *|eth;||||||
 z4 f4 | e2 d2 c2 B2 | (A2 G2 ^F2 G2- | G2 ^FE) F2 d2 | c2 B2 A2 G2 | (A2 B2 A2 G2 | A8) | G6 G2 | %39
w: and|Phi- lo- mel la-|ment­ * * *|* * * eth, and|Phi- lo- mel la-|ment­ * * *||eth, la-|
 ^F4 F4 | A4 A2 A2 | A6 A2 | d4 d4 | e4 A4 | (G4 A4 | G8) | A4 z4 | A2 AA A2 A2 | c3 c B2 A2 | G8 | %50
w: ment- eth,|Flo- ra the|gar- lands|white and|red com-|pil­ *||eth.|Fields do re- joice, the|frown- ing sky re-|lent-|
 E8 | z8 | z8 | c2 cc d2 c2 | f3 e d2 c2 | (=B2 c4 B2) | c8 | z8 | z8 | z8 | z8 | z8 | z8 | %63
w: eth,|||Fields do re- joice, the|frown- ing sky re-|lent­ * *|eth,|||||||
 c4 c3 d | _e6 e2 | _e4 d4 | c2 B2 (B2 A2) | B4 d4 | d6 d2 | c4 c4 | d4 D4- | D2 E2 F4- | F4 (c4- | %73
w: Jove, to be-|hold his|dear- est|daugh- ter, smil­ *|eth. The|air, the|wa- ter,|the earth|* to joy|* con­|
 c4 B4) | A8 | =B4 _B4 | A4 A4 | G8 | c4 c4 | f8 | e6 z2 | z8 | z4 c4 | d3 e f2 d2 | c6 c2 | %85
w: |sent-|eth, to|joy con-|sent-|eth, con-|sent-|eth,||Each|crea- ture now to|love him|
 d2 e2 f4 | e2 c2 c2 d2 | e2 e2 f4- | f4 e4 | d4 c4 | B8 | A6 z2 | z8 | z4 c4 | d3 e f2 d2 | %95
w: re- con- cil-|eth, each crea- ture|now to love|* him|re- con-|cil-|eth,||each|crea- ture now to|
 c6 c2 | d2 e2 f4 | e4 z4 | z8 | G4 G3 A | B4 c4 | d4 z2 G2 | c4 f4 | c8- | c8- | c8 | c8 |] %107
w: love him|re- con- cil-|eth,||each crea- ture|now to|love him|re- con-|cil­|||eth.|
V:2
 z8 | c6 BA | B2 c2 G2 A2 | G2 F2 G4 | A4 f4- | f2 ff e2 f2 | d2 A2 c4 | c8 | z8 | z4 z2 G2 | %10
w: |Ze- phy- rus|brings the time that|sweet- ly scent-|eth, Ze­|* phy- rus brings the|time that scent-|eth||With|
 G2 G2 c3 c | B2 A2 d2 (AB) | c8 | c8 | z8 | z8 | z8 | z8 | c6 BA | B2 c2 G2 A2 |[M:2/2] G2 F2 G4 | %21
w: flowers and herbs, and|win- ter's frost ex­ *|il-|eth,|||||Ze- phy- rus|brings the time that|sweet- ly scent-|
 A4 z2 c2 | d2 d2 d3 d | c2 d2 c2 c2 | (=B2 c4 B2) | c8- | c4 z4 | z4 d4- | d4 c4- | c4 (B2 A2) | %30
w: eth with|flowers and herbs, and|win- ter's frost ex-|il­ * *|eth:||Pro­|* gne|* now *|
 B8 | A6 d2 | c2 B2 A2 G2 | ^F2 G2 A2 B2 | A4 A2 f2 | e2 d2 c2 B2 | A2 G2 ^F2 G2- | G2 (^FE) F4 | %38
w: chirp-|eth and|Phi- lo- mel, and|Phi- lo- mel la-|ment- eth, and|Phi- lo- mel, and|Phi- lo- mel la­|* ment­ * eth,|
 z4 G4 | d4 A4 | z8 | f4 f2 f2 | f6 d2 | c6 d2 | e4 c4 | c8 | c4 z4 | c2 cc d2 c2 | f3 e d2 c2 | %49
w: la-|ment- eth,||Flo- ra the|gar- lands|white and|red com-|pil-|eth.|Fields do re- joice, the|frown- ing sky re-|
 (=B2 c4 B2) | c4 c2 cc | G2 G2 c3 B | A2 G2 F2 E2 | z8 | z8 | z8 | z8 | c4 c2 c2 | B6 B2 | B4 B4 | %60
w: lent­ * *|eth, fields do re-|joice, the frown- ing|sky re- lent- eth;|||||Jove, to be-|hold his|dear- est|
 _e4 d4 | c8 | B8 | z8 | z8 | z8 | z4 c4 | d6 B2 | B4 B4 | z4 f4 | F6 G2 | d8- | d4 _e4 | d8 | d8 | %75
w: daugh- ter,|smil-|eth.||||The|air, the|wa- ter,|the|earth to|joy|* con-|sent-|eth,|
 z4 (d3 e) | f4 c4 | B8 | A4 G4 | c8 | c6 c2 | d3 e f2 d2 | c8 | z8 | z4 c4 | B2 G2 A2 =B2 | %86
w: to *|joy con-|sent-|eth, con-|sent-|eth, Each|crea- ture now to|love,||each|crea- ture now to|
 c4 z4 | z8 | z8 | z8 | z8 | z4 c4 | d3 e f2 e2 | c6 z2 | z8 | z4 c4 | B2 G2 A2 =B2 | c6 d2 | %98
w: love,|||||each|crea- ture now to|love,||each|crea- ture now to|love him|
 e2 e2 f4- | f2 f2 e4 | d4 c4 | B8 | A4 c4- | c2 B2 A4- | A4 (G2 F2 | G8) | A8 |] %107
w: re- con- cil­|* eth, him|re- con-|cil-|eth, him|* re- con­|* cil­ *||eth.|
V:3
 F6 ED | E2 F2 C2 D2 | (G2 FEDE F2) | E2 (F4 E2) | F4 z2 D2- | D2 CD E2 C2 | DE F4 E2 | F4 F4 | %8
w: Ze- phy- rus|brings the time that|sweet­ * * * * *|ly scent­ *|eth, Ze­|* phy- rus brings the|time that sweet- ly|scent- eth|
 z2 F2 F2 F2 | B3 A G3 D | E6 E2 | F2 F2 F2 D2 | (E2 F4 E2) | F8 | F6 ED | E2 F2 C2 D2 | %16
w: With flowers and|herbs, and win- ter's|frost, and|win- ter's frost ex-|il­ * *|eth,|Ze- phy- rus|brings the time that|
 (G2 FEDE F2) | E2 (F4 E2) | F4 z2 D2- | D2 CD E2 C2 |[M:2/2] DE F3 F E2 | F4 z2 F2 | F2 F2 G4 | %23
w: sweet­ * * * * *|ly scent­ *|eth, Ze­|* phy- rus brings the|time that sweet- ly scent-|eth with|flowers and herbs,|
 z2 G2 E2 ^F2 | G2 G2 G4 | G2 G4 E2 | G2 A4 E2 | F2 F4 D2 | z8 | z2 G4 FE | (DCB,A,) G,4 | %31
w: and win- ter's|frost ex- il-|eth; Pro- gne|now chirp- eth,|now chirp- eth,||Pro­ * *|* * * * gne|
 A,4 A,4 | z8 | z8 | z8 | z8 | D2 D4 G,2 | D6 D2 | G2 F2 _E2 D2 | D4 D4 | C4 C2 C2 | F6 F2 | %42
w: chirp- eth,|||||and Phi- lo-|mel, and|Phi- lo- mel la-|ment- eth,|Flo- ra the|gar- lands|
 F6 G2 | E4 F4 | (E4 F4- | F4 E4) | F4 z4 | z8 | C2 CC D2 F2 | D3 E D2 D2 | C4 C4 | E2 EE E2 G2 | %52
w: white and|red com-|pil­ *||eth.||Fields do re- joice, the|frown- ing sky re-|lent- eth,|fields do re- joice, the|
 E (FGE) D2 G2 | F4 F2 F2 | C2 C2 D2 E2 | (D4 F4- | F2 ED) E4 | _E4 E3 F | G6 G2 | G6 F2 | %60
w: frown- ing * * sky re-|lent- eth, the|frown- ing sky re-|lent­ *|* * * eth;|Jove, to be-|hold his|dear- est|
 G2 A2 B4- | B4 A4 | B4 G4 | _A8- | A4 _E4 | G4 F4 | F8 | D6 D2 | G4 (D3 E) | F4 C4 | (D6 E2) | %71
w: daugh- ter, smil­||eth, his|dear­|* est|daugh- ter,|smil-|eth. The|air, the *|wa- ter,|the *|
 F8 | D4 G4 | ^F4 (G4- | G4 ^F4) | G4 G4 | =F4 E4 | (D3 C D2 E2) | F4 G4 | A2 A2 A4 | G6 G2 | %81
w: earth|to joy|con- sent­||eth, to|joy con-|sent­ * * *|eth, to|joy con- sent-|eth, Each|
 G2 G2 F2 F2 | E8 | z4 z2 D2 | E2 F2 G2 E2 | D2 C2 F2 D2 | E2 E2 A4 | G4 F4 | c2 c2 c4 | %89
w: crea- ture now to|love,|each|crea- ture now to|love him re- con-|cil- eth, him|re- con-|cil- eth, each|
 F2 G2 A2 F2 | G8 | C8 | B,2 G,2 A,2 =B,2 | C6 G2 | G2 G2 F2 F2 | E6 G2 | F2 E2 D4 | C4 A4 | %98
w: crea- ture now to|love,|each|crea- ture now to|love, each|crea- ture now to|love him|re- con- cil-|eth, him|
 G4 F4 | c2 c2 c4 | F2 G2 A2 A2 | D4 G4 | C4 A4 | (G4 F4- | F4 E2 D2 | E2 F4 E2) | F8 |] %107
w: re- con-|cil- eth, each|crea- ture now to|love him|re- con-|cil­ *|||eth.|
V:4
 z8 | A6 GF | G2 A2 B2 F2 | c2 d2 c4 | F6 F2 | B2 F2 c2 F2 | (Bc) d2 c4 | F2 A2 A2 A2 | %8
w: |Ze- phy- rus|brings the time that|sweet- ly scent-|eth, that|sweet- ly scents, that|sweet­ * ly scent-|eth With flowers and|
 d2 d2 B3 A | G2 G2 d2 d2 | z2 c2 c2 c2 | F4 F4 | c8 | A8 | z8 | A6 GF | G2 A2 B2 F2 | c2 d2 c4 | %18
w: herbs, and win- ter's|frost ex- il- eth,|and win- ter's|frost ex-|il-|eth,||Ze- phy- rus|brings the time that|sweet- ly scent-|
 F6 F2 | B2 F2 c2 F2 |[M:2/2] (Bc) d2 c4 | F4 z4 | z2 d2 d2 d2 | f2 d2 A2 c2 | d2 e2 d4 | c4 e4- | %26
w: eth, that|sweet- ly scents, that|sweet­ * ly scent-|eth|with flowers and|herbs, and win- ter's|frost ex- il-|eth; Pro­|
 e2 f2 e2 c2 | d4 f4- | f2 d2 e2 f2 | e4 d2 c2 | (d4 e4) | f4 F4 | c2 G2 A2 (Bc) | d8- | d8 | G8 | %36
w: * gne chirp- eth,|now Pro­|* gne chirp­ *|||eth and|Phi- lo- mel la­ *|ment­||eth,|
 z8 | z2 A2 A2 d2 | (Bc) d2 (G2 B2) | A8 | f4 f2 f2 | c6 c2 | d6 B2 | c2 c2 c4 | c8 | z8 | %46
w: |and Phi- lo-|mel * la- ment­ *|eth,|Flo- ra the|gar- lands|white and|red com- pil-|eth,||
 c2 cc d2 c2 | f3 e d2 f2 | c2 A2 z4 | z8 | G2 GG A2 G2 | c3 B A2 G2 | c4 A2 c2- | (cBAG) A4 | %54
w: Fields do re- joice, the|frown- ing sky re-|lent- eth,||fields do re- joice, the|frown- ing sky re-|lent- eth, re­|* * * * lent-|
 A4 z2 (G2- | G2 FE) F4 | G8 | c4 c3 d | _e6 e2 | _e6 d2 | c4 B4 | f8 | B4 _e4- | e2 _e2 f4 | %64
w: eth, re­|* * * lent-|eth;|Jove, to be-|hold his|dear- est|daugh- ter,|smil-|eth, Jove,|* to be-|
 _e4 c4 | B6 B2 | c2 d2 c4 | B8 | z4 B4 | c4 A4 | B4 B4 | B4 d4- | d2 A2 (c3 B | A4) G4 | A8 | %75
w: hold his|dear- est|daugh- ter, smil-|eth.|The|air, the|wa- ter,|the earth|* to joy *|* con-|sent-|
 G4 d4 | d4 c4 | G6 G2 | A2 A2 c4 | c8 | c4 c4 | B2 G2 A2 =B2 | c6 g2 | g2 g2 f2 f2 | e6 g2 | %85
w: eth, the|earth to|joy con-|sent- eth, con-|sent-|eth, Each|crea- ture now to|love, each|crea- ture now to|love him|
 f2 e2 d4 | c6 A2 | c2 c2 c2 =B2 | c6 c2 | d2 e2 (f4- | f4 e4) | f6 f2 | f2 g2 f2 f2 | e6 z2 | %94
w: re- con- cil-|eth, each|crea- ture now to|love him|re- con- cil­||eth, each|crea- ture now to|love,|
 z4 z2 d2 | e2 f2 g2 e2 | d2 c2 f2 d2 | e2 e2 c4 | c2 c2 c2 =B2 | c6 c2 | d2 e2 (f4- | f4 e4) | %102
w: each|crea- ture now to|love him re- con-|cil- eth, each|crea- ture now to|love him|re- con- cil­||
 f8 | z4 c4 | c4 c4 | c8 | c8 |] %107
w: eth,|him|re- con-|cil-|eth.|
V:5
 z8 | z8 | z8 | z8 | z8 | z8 | z8 | z2 F,2 F,2 F,2 | B,4 z4 | z2 G,2 G,2 G,2 | C4 z2 C,2 | %11
w: |||||||With flowers and|herbs,|with flowers and|herbs, and|
 D,2 F,2 B,,2 D,2 | C,8 | F,8- | F,4 z4 | z8 | z8 | z8 | z8 | z8 |[M:2/2] z8 | z2 F,2 F,2 F,2 | %22
w: win- ter's frost ex-|il-|eth,||||||||with flowers and|
 B,6 G,2 | A,2 B,2 C2 A,2 | G,8 | C,4 C4- | C2 A,2 C4 | B,8 | B,4 A,4 | G,8- | G,8 | F,4 z4 | z8 | %33
w: herbs, and|win- ter's frost ex-|il-|eth; Pro­|* gne now|chirp-|eth, now|chirp­||eth,||
 z8 | z4 D,4 | E,4 E,4 | ^F,2 G,2 (D,2 _E,2) | D,4 D,4 | _E,2 D,2 C,2 B,,2 | D,4 D,4 | %40
w: |and|Phi- lo-|mel la- ment­ *|eth, and|Phi- lo- mel la-|ment- eth,|
 F,4 F,2 F,2 | F,6 F,2 | B,4 B,4 | A,4 F,4 | C8- | C8 | F,8- | F,8 | F,8 | G,8 | C,8 | z8 | %52
w: Flo- ra the|gar- lands|white and|red com-|pil­||eth,||com-|pil-|eth.||
 C,2 C,C, D,2 C,2 | F,3 E, D,2 (F,2- | F,E,D,C,) (=B,,2 C,2 | D,8) | C,8 | z8 | z8 | z8 | z8 | z8 | %62
w: Fields do re- joice, the|frown- ing sky re­|* * * * lent­ *||eth,||||||
 _E,4 E,2 E,2 | _A,6 A,2 | _A,6 A,2 | G,4 B,4 | F,8 | B,,4 B,4 | G,6 B,2 | F,4 F,4 | z4 B,4 | %71
w: Jove, to be-|hold his|dear- est|daugh- ter,|smil-|eth. The|air, the|wa- ter,|the|
 B,,6 C,2 | D,4 C,4 | D,8- | D,8 | G,8 | z8 | z4 G,4 | F,4 E,4 | F,8 | C,6 z2 | z8 | C8 | %83
w: earth to|joy con-|sent­||eth,||to|joy con-|sent-|eth,||Each|
 B,2 G,2 A,2 =B,2 | C8 | z8 | z4 F,4 | E,2 C,2 F,2 D,2 | C,6 C2 | B,4 A,4 | G,8 | F,6 z2 | z8 | %93
w: crea- ture now to|love,||each|crea- ture now to|love him|re- con-|cil-|eth,||
 C8 | B,2 G,2 A,2 =B,2 | C6 z2 | z8 | z4 F,4 | E,2 C,2 F,2 D,2 | C,6 C2 | B,4 A,4 | G,8 | F,4 F,4 | %103
w: each|crea- ture now to|love||each|crea- ture now to|love him|re- con-|cil-|eth, him|
 E,4 F,4 | C,8- | C,8 | [F,,F,]8 |] %107
w: re- con-|cil­||eth.|

